file/gazprom.svg

<svg clip-rule="evenodd" fill-rule="evenodd" stroke-linejoin="round" stroke-miterlimit="1.41421" viewBox="0 0 560 400" xmlns="http://www.w3.org/2000/svg"><g fill="#0079c1" fill-rule="nonzero" transform="matrix(.80566 0 0 .80566 68.935 95.1186)"><path d="m404.533 225.611c0 1.276-.944 2.444-2.334 2.444-.845 0-2.335-.532-2.335-2.444v-50.669c0-1.913 1.49-2.439 2.335-2.439 1.39 0 2.334 1.167 2.334 2.439zm-19.521-1.297c0 5.201.646 13.268 11.077 13.268h12.269c10.431 0 11.076-8.067 11.076-13.268v-47.763c0-5.205-.645-13.272-11.076-13.272h-12.269c-10.431 0-11.077 8.067-11.077 13.272z"/><path d="m256.133 217.81h-30.398v-9.338l14.255-55.711h-12.765v-9.254h28.014v9.234l-14.206 55.542h15.1zm30.349-74.303c10.381.001 11.027 8.067 11.027 13.272v22.501c0 5.201-.646 13.267-11.027 13.267h-8.493v25.263h-14.902v-74.303zm-122.091 74.303h-12.318c-10.381 0-11.027-8.067-11.027-13.267v-47.764c0-5.205.646-13.272 11.027-13.272h12.318c10.431 0 11.077 8.067 11.077 13.272v10.506h-14.901v-12.115c0-1.271-.944-2.439-2.335-2.439-.844 0-2.334.527-2.334 2.439v50.669c0 1.908 1.49 2.439 2.334 2.439 1.391 0 2.335-1.167 2.335-2.439v-16.262h-2.235v-8.176h17.136v23.142c0 5.2-.646 13.267-11.077 13.267zm164.113-74.303c10.431.001 11.027 8.067 11.027 13.272v23.033c0 2.012-.1 6.899-5.365 9.02l7.302 28.978h-15.299l-5.066-27.493h-1.093v27.493h-14.852v-74.303zm-116.031 0 7.748 74.303h-14.553l-1.391-19.739h-7.004l-1.341 19.739h-14.553l7.748-74.303zm194.262 74.303h-14.851v-74.303h19.322l9.636 52.224 9.686-52.224h19.322v74.303h-14.852v-46.601h-.546l-7.65 46.601h-11.871l-7.649-46.601h-.547zm-275.176-74.317v50.783c-13.56 14.469-32.832 23.519-54.241 23.519-41.028 0-74.307-33.269-74.307-74.302 0-41.038 33.279-74.308 74.307-74.308v55.87c-10.679 0-21.358 4.073-29.504 12.224-1.937 1.937-3.626 4.023-5.116 6.214-10.928 16.222-9.239 38.435 5.116 52.795 8.146 8.146 18.825 12.219 29.504 12.219 10.63 0 21.309-4.044 29.406-12.12.049-.04.099-.07.149-.109v-.01c.049-.03.049-.06.099-.095 8.146-8.156 8.146-21.383 0-29.544-8.146-8.156-21.408-8.156-29.554 0 0 .03-.05.065-.1.095v-23.231zm72.221 46.402-2.583-37.134h-.844l-2.533 37.134zm76.096-6.621c1.639 0 2.782-1.381 2.782-3.715v-23.122c0-2.34-1.143-3.716-2.782-3.716h-1.887v30.553zm42.071-2.22c1.59-.001 2.732-1.381 2.732-3.716v-20.901c0-2.335-1.142-3.711-2.732-3.711h-1.937v28.328zm-200.173-139.248c-4.57-19.937-15.994-36.15-17.534-38.797-2.484 3.72-11.573 18.035-16.242 33.92-5.017 17.702-5.762 33.413-4.024 48.886 1.739 15.472 8.246 31.357 8.246 31.357 3.477 8.35 8.692 17.285 12.07 21.676 4.967-6.457 16.391-25.729 19.967-50.882 1.987-13.978 2.037-26.222-2.483-46.16zm-17.534 92.075c-2.235-4.217-5.712-12.249-6.06-24.656-.099-11.991 4.719-22.253 6.11-24.404 1.241 2.151 5.414 11.087 5.911 23.331.298 11.995-3.676 21.428-5.961 25.729zm16.193-58.239c-.149 7.605-1.043 15.632-2.235 20.43.447-8.27-.547-19.933-2.484-29.038-1.888-9.099-7.252-24.319-11.573-31.352-3.974 6.701-8.842 19.858-11.425 31.268-2.533 11.424-2.632 25.233-2.632 29.375-.696-3.492-2.384-15.939-1.888-28.461.398-10.327 2.782-20.932 4.123-25.809 5.066-16.297 10.779-26.718 11.822-28.372 1.092 1.654 8.295 14.474 12.02 27.96 3.725 13.48 4.47 26.385 4.272 33.999z" transform="translate(35.5476 19.7715)"/></g></svg>

<?xml version="1.0" encoding="UTF-8" standalone="no"?>
<!DOCTYPE svg PUBLIC "-//W3C//DTD SVG 1.1//EN" "http://www.w3.org/Graphics/SVG/1.1/DTD/svg11.dtd">
<svg width="100%" height="100%" viewBox="0 0 560 400" version="1.1" xmlns="http://www.w3.org/2000/svg" xmlns:xlink="http://www.w3.org/1999/xlink" xml:space="preserve" xmlns:serif="http://www.serif.com/" style="fill-rule:evenodd;clip-rule:evenodd;stroke-linejoin:round;stroke-miterlimit:1.41421;">
    <g transform="matrix(0.80566,0,0,0.80566,68.935,95.1186)">
        <path id="path4302" d="M404.533,225.611C404.533,226.887 403.589,228.055 402.199,228.055C401.354,228.055 399.864,227.523 399.864,225.611L399.864,174.942C399.864,173.029 401.354,172.503 402.199,172.503C403.589,172.503 404.533,173.67 404.533,174.942L404.533,225.611ZM385.012,224.314C385.012,229.515 385.658,237.582 396.089,237.582L408.358,237.582C418.789,237.582 419.434,229.515 419.434,224.314L419.434,176.551C419.434,171.346 418.789,163.279 408.358,163.279L396.089,163.279C385.658,163.279 385.012,171.346 385.012,176.551L385.012,224.314" style="fill:rgb(0,121,193);fill-rule:nonzero;"/>
        <g id="path4288" transform="matrix(1,0,0,1,35.5476,19.7715)">
            <path d="M256.133,217.81L225.735,217.81L225.735,208.472L239.99,152.761L227.225,152.761L227.225,143.507L255.239,143.507L255.239,152.741L241.033,208.283L256.133,208.283L256.133,217.81ZM286.482,143.507C296.863,143.508 297.509,151.574 297.509,156.779L297.509,179.28C297.509,184.481 296.863,192.547 286.482,192.547L277.989,192.547L277.989,217.81L263.087,217.81L263.087,143.507L286.482,143.507ZM164.391,217.81L152.073,217.81C141.692,217.81 141.046,209.743 141.046,204.543L141.046,156.779C141.046,151.574 141.692,143.507 152.073,143.507L164.391,143.507C174.822,143.507 175.468,151.574 175.468,156.779L175.468,167.285L160.567,167.285L160.567,155.17C160.567,153.899 159.623,152.731 158.232,152.731C157.388,152.731 155.898,153.258 155.898,155.17L155.898,205.839C155.898,207.747 157.388,208.278 158.232,208.278C159.623,208.278 160.567,207.111 160.567,205.839L160.567,189.577L158.332,189.577L158.332,181.401L175.468,181.401L175.468,204.543C175.468,209.743 174.822,217.81 164.391,217.81ZM328.504,143.507C338.935,143.508 339.531,151.574 339.531,156.779L339.531,179.812C339.531,181.824 339.431,186.711 334.166,188.832L341.468,217.81L326.169,217.81L321.103,190.317L320.01,190.317L320.01,217.81L305.158,217.81L305.158,143.507L328.504,143.507ZM212.473,143.507L220.221,217.81L205.668,217.81L204.277,198.071L197.273,198.071L195.932,217.81L181.379,217.81L189.127,143.507L212.473,143.507ZM406.735,217.81L391.884,217.81L391.884,143.507L411.206,143.507L420.842,195.731L430.528,143.507L449.85,143.507L449.85,217.81L434.998,217.81L434.998,171.209L434.452,171.209L426.802,217.81L414.931,217.81L407.282,171.209L406.735,171.209L406.735,217.81ZM131.559,143.493L131.559,194.276C117.999,208.745 98.727,217.795 77.318,217.795C36.29,217.795 3.011,184.526 3.011,143.493C3.011,102.455 36.29,69.185 77.318,69.185L77.318,125.055C66.639,125.055 55.96,129.128 47.814,137.279C45.877,139.216 44.188,141.302 42.698,143.493C31.77,159.715 33.459,181.928 47.814,196.288C55.96,204.434 66.639,208.507 77.318,208.507C87.948,208.507 98.627,204.463 106.724,196.387C106.773,196.347 106.823,196.317 106.873,196.278L106.873,196.268C106.922,196.238 106.922,196.208 106.972,196.173C115.118,188.017 115.118,174.79 106.972,166.629C98.826,158.473 85.564,158.473 77.418,166.629C77.418,166.659 77.368,166.694 77.318,166.724L77.318,143.493L131.559,143.493ZM203.78,189.895L201.197,152.761L200.353,152.761L197.82,189.895L203.78,189.895ZM279.876,183.274C281.515,183.274 282.658,181.893 282.658,179.559L282.658,156.437C282.658,154.097 281.515,152.721 279.876,152.721L277.989,152.721L277.989,183.274L279.876,183.274ZM321.947,181.054C323.537,181.053 324.679,179.673 324.679,177.338L324.679,156.437C324.679,154.102 323.537,152.726 321.947,152.726L320.01,152.726L320.01,181.054L321.947,181.054ZM121.774,41.806C117.204,21.869 105.78,5.656 104.24,3.009C101.756,6.729 92.667,21.044 87.998,36.929C82.981,54.631 82.236,70.342 83.974,85.815C85.713,101.287 92.22,117.172 92.22,117.172C95.697,125.522 100.912,134.457 104.29,138.848C109.257,132.391 120.681,113.119 124.257,87.966C126.244,73.988 126.294,61.744 121.774,41.806ZM104.24,133.881C102.005,129.664 98.528,121.632 98.18,109.225C98.081,97.234 102.899,86.972 104.29,84.821C105.531,86.972 109.704,95.908 110.201,108.152C110.499,120.147 106.525,129.58 104.24,133.881ZM120.433,75.642C120.284,83.247 119.39,91.274 118.198,96.072C118.645,87.802 117.651,76.139 115.714,67.034C113.826,57.935 108.462,42.715 104.141,35.682C100.167,42.383 95.299,55.54 92.716,66.95C90.183,78.374 90.084,92.183 90.084,96.325C89.388,92.833 87.7,80.386 88.196,67.864C88.594,57.537 90.978,46.932 92.319,42.055C97.385,25.758 103.098,15.337 104.141,13.683C105.233,15.337 112.436,28.157 116.161,41.643C119.886,55.123 120.631,68.028 120.433,75.642Z" style="fill:rgb(0,121,193);fill-rule:nonzero;"/>
        </g>
    </g>
</svg>
